images/dark/trashcan.svg

<svg fill="none" height="16" viewBox="0 0 16 16" width="16" xmlns="http://www.w3.org/2000/svg"><path clip-rule="evenodd" d="m6 2h3v1h-3zm5 1h-1v-1c0-.55228-.44772-1-1-1h-3c-.55228 0-1 .44772-1 1v1h-1-1-1v1h1v9l1 1h7l1-1v-9h1v-1h-1zm-7 1v9h7v-9zm2 1h-1v7h1zm1 0h1v7h-1zm3 0h-1v7h1z" fill="#c5c5c5" fill-rule="evenodd"/></svg>

<svg xmlns="http://www.w3.org/2000/svg" width="16" height="16" fill="none" viewBox="0 0 16 16"><path fill="#C5C5C5" fill-rule="evenodd" d="M6 2H9V3H6V2ZM11 3H10V2C10 1.44772 9.55228 1 9 1H6C5.44772 1 5 1.44772 5 2V3H4H3H2V4H3V13L4 14H11L12 13V4H13V3H12H11ZM4 4V13H11V4H4ZM6 5H5V12H6V5ZM7 5H8V12H7V5ZM10 5H9V12H10V5Z" clip-rule="evenodd"/></svg>
